icons/4_Outdated/OpenSRS v1.svg

<svg width="1024" height="1024" viewBox="0 0 1024 1024" fill="none" xmlns="http://www.w3.org/2000/svg">
<g clip-path="url(#clip0_2_3042)">
<path d="M512 1024C794.77 1024 1024 794.77 1024 512C1024 229.23 794.77 0 512 0C229.23 0 0 229.23 0 512C0 794.77 229.23 1024 512 1024Z" fill="#F8C18C"/>
<path d="M597.8 575.6V652.1H393.8V448.4H470.3V278.1H300V448.3H376.5V669.3H597.8V745.8H768V575.6H597.8ZM317.4 431V295.5H452.9V431H317.4ZM750.6 728.5H615.1V593H750.6V728.5Z" fill="white"/>
</g>
<defs>
<clipPath id="clip0_2_3042">
<rect width="1024" height="1024" fill="white"/>
</clipPath>
</defs>
</svg>

<svg xmlns="http://www.w3.org/2000/svg" width="1024" height="1024" fill="none">
   <g clip-path="url(#a)">
      <path fill="#F8C18C" d="M512 1024c282.77 0 512-229.23 512-512S794.77 0 512 0 0 229.23 0 512s229.23 512 512 512Z"/>
      <path fill="#fff" d="M597.8 575.6v76.5h-204V448.4h76.5V278.1H300v170.2h76.5v221h221.3v76.5H768V575.6H597.8ZM317.4 431V295.5h135.5V431H317.4Zm433.2 297.5H615.1V593h135.5v135.5Z"/>
   </g>
   <defs>
      <clipPath id="a">
         <path fill="#fff" d="M0 0h1024v1024H0z"/>
      </clipPath>
   </defs>
</svg>
